icons/amazon-line.svg

<svg xmlns="http://www.w3.org/2000/svg" width="24" height="24" fill="none"><g clip-path="url(#a)"><g><path fill="#121212" d="M15.6247 14.62C14.5177 16.239 12.8967 17.004 10.9997 17.004C8.69569 17.004 6.72369 15.231 7.00669 12.88C7.32169 10.272 9.34669 9.15005 12.7147 8.73705C13.3157 8.66405 13.5647 8.64305 14.8617 8.54705L14.9997 8.53705V8.32205C14.9997 6.52605 13.9317 5.30005 12.4997 5.30005C11.0627 5.30005 10.0597 6.04705 9.44469 7.82605L7.55469 7.17405C8.44169 4.60405 10.1927 3.30005 12.4997 3.30005C15.1027 3.30005 16.9997 5.47805 16.9997 8.32205C16.9997 10.971 17.1627 13.078 17.4827 13.879C17.8387 14.771 17.9687 14.996 18.3667 15.492L16.8067 16.743C16.2837 16.091 16.0537 15.694 15.6257 14.621V14.62H15.6247ZM21.2567 20.545C20.9857 20.7451 20.5147 20.626 20.7277 20.105C20.9927 19.457 21.2747 18.697 20.9897 18.353C20.7797 18.098 20.5227 17.971 19.9627 17.971C19.5027 17.971 19.2727 18.031 18.9677 18.051C18.7637 18.064 18.6747 17.754 18.8767 17.611C19.1412 17.4215 19.4351 17.2769 19.7467 17.183C20.8967 16.839 22.2517 17.028 22.4167 17.266C22.7817 17.796 22.2177 19.835 21.2567 20.546V20.545ZM20.0747 19.4611C19.815 19.7123 19.5376 19.9445 19.2447 20.156C17.1227 21.772 14.3747 22.616 11.9867 22.616C8.14369 22.616 4.70669 20.823 2.09869 17.821C1.87569 17.591 2.06069 17.255 2.32169 17.437C5.13169 19.514 8.60969 20.7701 12.2107 20.7701C14.4757 20.7701 16.9187 20.233 19.2457 19.077C19.4077 19.001 19.5897 18.897 19.7487 18.823C20.1157 18.613 20.4387 19.1291 20.0747 19.4611ZM15.0097 10.541C13.7517 10.635 13.5137 10.654 12.9577 10.722C10.4057 11.035 9.16069 11.725 8.99269 13.12C8.86669 14.163 9.80269 15.004 10.9997 15.004C13.0387 15.004 14.5167 13.776 15.0217 10.541H15.0097Z"/></g></g><defs><clipPath id="a"><rect width="24" height="24" fill="white"/></clipPath></defs></svg>

<svg width="24" height="24" fill="none" xmlns="http://www.w3.org/2000/svg"><g clip-path="url(#a)"><path d="M15.625 14.62c-1.107 1.619-2.728 2.384-4.625 2.384-2.304 0-4.276-1.773-3.993-4.124.315-2.608 2.34-3.73 5.708-4.143.6-.073.85-.094 2.147-.19l.138-.01v-.215C15 6.526 13.932 5.3 12.5 5.3c-1.437 0-2.44.747-3.055 2.526l-1.89-.652C8.442 4.604 10.193 3.3 12.5 3.3c2.603 0 4.5 2.178 4.5 5.022 0 2.649.163 4.756.483 5.557.356.892.486 1.117.884 1.613l-1.56 1.251c-.523-.652-.753-1.049-1.181-2.122v-.001h-.001Zm5.632 5.925c-.271.2-.742.081-.53-.44.266-.648.548-1.408.263-1.752-.21-.255-.467-.382-1.027-.382-.46 0-.69.06-.995.08-.204.013-.293-.297-.091-.44a2.96 2.96 0 0 1 .87-.428c1.15-.344 2.505-.155 2.67.083.365.53-.2 2.569-1.16 3.28v-.001Zm-1.182-1.084c-.26.251-.537.484-.83.695-2.122 1.616-4.87 2.46-7.258 2.46-3.843 0-7.28-1.793-9.888-4.795-.223-.23-.038-.566.223-.384 2.81 2.077 6.288 3.333 9.889 3.333 2.265 0 4.708-.537 7.035-1.693.162-.076.344-.18.503-.254.367-.21.69.306.326.638Zm-5.065-8.92c-1.258.094-1.496.113-2.052.181-2.552.313-3.797 1.003-3.965 2.398-.126 1.043.81 1.884 2.007 1.884 2.039 0 3.517-1.228 4.022-4.463h-.012Z" /></g><defs><clipPath id="a"><path fill="#fff" d="M0 0h24v24H0z"/></clipPath></defs></svg>
